X:1
T:Autumn Waltz
C:Bill Staines
M:3/4    %(3/4, 4/4, 6/8)
L:1/4    %(1/8, 1/4)
V:1 clef=treble
K:D    %(D, C)
|"^D A D"D/2E/2|:"D"F2 G/2A/2|"G"B e B|"A"A F E|"Bm"D2 E/2F/2|"G"B,2 C/2D/2
w:* * 0 * * 0 * * 4 * * 2 * * 3 * *
w:* * 0 * * 6 * * 4 5 4 1 * * 1 2 *
w:0 1 2 3 4 5 8 5  4  * *  0 1 2 0 * 0
|"D"A, D D/2E/2|"G"F E D|"A"E2 D/2E/2|"D"F2 G/2A/2|"G"B e B|"A"A F E
w:0 * * * * * * 1 * * 0 * * 0 * * 4 * *
w:0 * * * 1 * * 0 * * 0 * * 6 * * 4 5 4
w:* 0 0 1 2 1 0 1 0 1 2 3 4 5 8 5 4 * *
|"Bm"D2 E/2F/2|"G"B,2 C/2D/2|"D"A, D "A"C|"D"D3|1 "D"z z D/2E/2:|2 "D"z z F/2E/2||
w:2 * * 3 * * 2 * 1 2 * * * *
w:1 * * 1 2 * 0 * 2 0 * * * *
w:0 1 2 * * 0 * 0 * 0 0 1 2 1
|:"Bm"D2 E/2F/2|"Em"G A B|"F#m"A F E|"G"D2 C/2B,/2|"D"A,/2C/2 D A,|"Em"G,/2C/2 D D/2E/2
w:2 * * 1 * * 2 * * 3 * * 2 * * * 3 * * * *
w:1 * * 1 * * 2 * * 1 2 1 0 2 * 0 * 2 * * *
w:0 1 2 3 4 5 4 2 1 0 * * * * 0 * * * 0 0 1
|"G"F E D|"A"E2 F/2E/2|"Bm"D2 E/2F/2|"Em"G A B|"F#m"A F E|"G"D2 C/2B,/2
w:3 * * 1 * * 2 * * 1 * * 2 * * 3 * *
w:1 * * 0 * * 1 * * 1 * * 2 * * 1 2 1
w:2 1 0 1 2 1 0 1 2 3 4 5 4 2 1 0 * *
|"D"A,/2C/2 D B,|"Em"G,/2C/2 D D/2E/2|"A"F E D|1 "D"D3|z z F/2E/2:|2 "D"D3-|D2||
w:2 * * * 3 * * * * 1 * * 2 * * 2_
w:0 2 * 1 * 2 * * * 0 * * 0 * * 0_
w:* * 0 * * * 0 0 1 2 1 0 0 2 1 0_
